flaticon/household/radiator-4.svg

<svg xmlns="http://www.w3.org/2000/svg" width="32" height="32" viewBox="0 0 24 24">
    <path d="M 24 1.800781 L 0 1.800781 L 0 21 L 1.199219 21 L 1.199219 22.199219 L 3.601562 22.199219 L 3.601562 21 L 20.398438 21 L 20.398438 22.199219 L 22.800781 22.199219 L 22.800781 21 L 24 21 Z M 2.800781 21.398438 L 2 21.398438 L 2 21 L 2.800781 21 Z M 22 21.398438 L 21.199219 21.398438 L 21.199219 21 L 22 21 Z M 23.199219 20.199219 L 0.800781 20.199219 L 0.800781 2.601562 L 23.199219 2.601562 Z M 23.199219 20.199219"/>
    <path d="M22.398438 19.398438L22.398438 16.199219 1.601562 16.199219 1.601562 19.398438zM8.398438 18.199219L9.601562 18.199219 9.601562 18.601562 8.398438 18.601562zM7.601562 18.601562L6.398438 18.601562 6.398438 18.199219 7.601562 18.199219zM10.398438 18.199219L11.601562 18.199219 11.601562 18.601562 10.398438 18.601562zM12.398438 18.199219L13.601562 18.199219 13.601562 18.601562 12.398438 18.601562zM14.398438 18.199219L15.601562 18.199219 15.601562 18.601562 14.398438 18.601562zM16.398438 18.199219L17.601562 18.199219 17.601562 18.601562 16.398438 18.601562zM18.398438 18.199219L19.601562 18.199219 19.601562 18.601562 18.398438 18.601562zM18.398438 17.398438L18.398438 17 19.601562 17 19.601562 17.398438zM17.601562 17.398438L16.398438 17.398438 16.398438 17 17.601562 17zM15.601562 17.398438L14.398438 17.398438 14.398438 17 15.601562 17zM13.601562 17.398438L12.398438 17.398438 12.398438 17 13.601562 17zM11.601562 17.398438L10.398438 17.398438 10.398438 17 11.601562 17zM9.601562 17.398438L8.398438 17.398438 8.398438 17 9.601562 17zM7.601562 17.398438L6.398438 17.398438 6.398438 17 7.601562 17zM5.601562 17.398438L4.398438 17.398438 4.398438 17 5.601562 17zM5.601562 18.199219L5.601562 18.601562 4.398438 18.601562 4.398438 18.199219zM20.398438 18.601562L20.398438 18.199219 21.601562 18.199219 21.601562 18.601562zM21.601562 17.398438L20.398438 17.398438 20.398438 17 21.601562 17zM3.601562 17L3.601562 17.398438 2.398438 17.398438 2.398438 17zM2.398438 18.199219L3.601562 18.199219 3.601562 18.601562 2.398438 18.601562zM22.398438 9L22.398438 3.398438 1.601562 3.398438 1.601562 9zM2.398438 5.800781L3.601562 5.800781 3.601562 6.601562 2.398438 6.601562zM4.398438 5.800781L5.601562 5.800781 5.601562 6.601562 4.398438 6.601562zM21.601562 6.601562L20.398438 6.601562 20.398438 5.800781 21.601562 5.800781zM19.601562 6.601562L18.398438 6.601562 18.398438 5.800781 19.601562 5.800781zM15.601562 6.601562L14.398438 6.601562 14.398438 5.800781 15.601562 5.800781zM16.398438 5.800781L17.601562 5.800781 17.601562 6.601562 16.398438 6.601562zM13.601562 6.601562L12.398438 6.601562 12.398438 5.800781 13.601562 5.800781zM11.601562 6.601562L10.398438 6.601562 10.398438 5.800781 11.601562 5.800781zM9.601562 6.601562L8.398438 6.601562 8.398438 5.800781 9.601562 5.800781zM7.601562 6.601562L6.398438 6.601562 6.398438 5.800781 7.601562 5.800781zM7.601562 7.398438L7.601562 8.199219 6.398438 8.199219 6.398438 7.398438zM8.398438 7.398438L9.601562 7.398438 9.601562 8.199219 8.398438 8.199219zM10.398438 7.398438L11.601562 7.398438 11.601562 8.199219 10.398438 8.199219zM12.398438 7.398438L13.601562 7.398438 13.601562 8.199219 12.398438 8.199219zM14.398438 7.398438L15.601562 7.398438 15.601562 8.199219 14.398438 8.199219zM16.398438 7.398438L17.601562 7.398438 17.601562 8.199219 16.398438 8.199219zM18.398438 7.398438L19.601562 7.398438 19.601562 8.199219 18.398438 8.199219zM18.398438 5L18.398438 4.199219 19.601562 4.199219 19.601562 5zM17.601562 5L16.398438 5 16.398438 4.199219 17.601562 4.199219zM15.601562 5L14.398438 5 14.398438 4.199219 15.601562 4.199219zM13.601562 5L12.398438 5 12.398438 4.199219 13.601562 4.199219zM11.601562 5L10.398438 5 10.398438 4.199219 11.601562 4.199219zM9.601562 5L8.398438 5 8.398438 4.199219 9.601562 4.199219zM7.601562 5L6.398438 5 6.398438 4.199219 7.601562 4.199219zM5.601562 5L4.398438 5 4.398438 4.199219 5.601562 4.199219zM5.601562 7.398438L5.601562 8.199219 4.398438 8.199219 4.398438 7.398438zM20.398438 8.199219L20.398438 7.398438 21.601562 7.398438 21.601562 8.199219zM21.601562 5L20.398438 5 20.398438 4.199219 21.601562 4.199219zM3.601562 4.199219L3.601562 5 2.398438 5 2.398438 4.199219zM2.398438 7.398438L3.601562 7.398438 3.601562 8.199219 2.398438 8.199219zM14 12.601562C14 13.703125 14.898438 14.601562 16 14.601562 17.101562 14.601562 18 13.703125 18 12.601562 18 11.496094 17.101562 10.601562 16 10.601562 14.898438 10.601562 14 11.496094 14 12.601562zM17.199219 12.601562C17.199219 13.261719 16.660156 13.800781 16 13.800781 15.339844 13.800781 14.800781 13.261719 14.800781 12.601562 14.800781 12.078125 15.136719 11.640625 15.601562 11.472656L15.601562 12.601562C15.601562 12.820312 15.777344 13 16 13 16.222656 13 16.398438 12.820312 16.398438 12.601562L16.398438 11.472656C16.863281 11.640625 17.199219 12.078125 17.199219 12.601562zM21.808594 11.183594C21.445312 10.824219 20.949219 10.601562 20.398438 10.601562 19.296875 10.601562 18.398438 11.496094 18.398438 12.601562 18.398438 13.703125 19.296875 14.601562 20.398438 14.601562 21.503906 14.601562 22.398438 13.703125 22.398438 12.601562 22.398438 12.050781 22.175781 11.554688 21.816406 11.191406 21.816406 11.191406 21.816406 11.1875 21.8125 11.1875 21.8125 11.183594 21.808594 11.183594 21.808594 11.183594zM20.398438 13.800781C19.738281 13.800781 19.199219 13.261719 19.199219 12.601562 19.199219 11.9375 19.738281 11.398438 20.398438 11.398438 20.585938 11.398438 20.757812 11.445312 20.914062 11.519531L20.117188 12.316406C19.960938 12.472656 19.960938 12.726562 20.117188 12.882812 20.195312 12.960938 20.296875 13 20.398438 13 20.503906 13 20.605469 12.960938 20.683594 12.882812L21.480469 12.085938C21.554688 12.242188 21.601562 12.414062 21.601562 12.601562 21.601562 13.261719 21.0625 13.800781 20.398438 13.800781zM4 11.398438L1.601562 11.398438 1.601562 13.800781 4 13.800781zM3.199219 13L2.398438 13 2.398438 12.199219 3.199219 12.199219zM4.398438 13.800781L6.800781 13.800781 6.800781 11.398438 4.398438 11.398438zM5.199219 12.199219L6 12.199219 6 13 5.199219 13zM5.199219 12.199219"/>
</svg>

<svg xmlns="http://www.w3.org/2000/svg" width="32" height="32" viewBox="0 0 24 24">
    <path d="M24 1.8H0V21h1.2v1.2h2.402V21h16.796v1.2h2.403V21H24zM2.8 21.399H2V21h.8zm19.2 0h-.8V21h.8zm1.2-1.199H.8V2.602h22.4zm0 0"/>
    <path d="M22.398 19.398V16.2H1.602v3.2zm-14-1.199h1.204v.403H8.398zm-.796.403H6.398v-.403h1.204zm2.796-.403h1.204v.403h-1.204zm2 0h1.204v.403h-1.204zm2 0h1.204v.403h-1.204zm2 0h1.204v.403h-1.204zm2 0h1.204v.403h-1.204zm0-.8V17h1.204v.398zm-.796 0h-1.204V17h1.204zm-2 0h-1.204V17h1.204zm-2 0h-1.204V17h1.204zm-2 0h-1.204V17h1.204zm-2 0H8.398V17h1.204zm-2 0H6.398V17h1.204zm-2 0H4.398V17h1.204zm0 .8v.403H4.398v-.403zm14.796.403v-.403h1.204v.403zm1.204-1.204h-1.204V17h1.204zm-18-.398v.398H2.398V17zm-1.204 1.2h1.204v.402H2.398zm0 0M22.398 9V3.398H1.602V9zm-20-3.2h1.204v.802H2.398zm2 0h1.204v.802H4.398zm17.204.802h-1.204V5.8h1.204zm-2 0h-1.204V5.8h1.204zm-4 0h-1.204V5.8h1.204zm.796-.801h1.204v.8h-1.204zm-2.796.8h-1.204v-.8h1.204zm-2 0h-1.204v-.8h1.204zm-2 0H8.398v-.8h1.204zm-2 0H6.398v-.8h1.204zm0 .797V8.2H6.398v-.8zm.796 0h1.204V8.2H8.398zm2 0h1.204V8.2h-1.204zm2 0h1.204V8.2h-1.204zm2 0h1.204V8.2h-1.204zm2 0h1.204V8.2h-1.204zm2 0h1.204V8.2h-1.204zm0-2.398v-.8h1.204V5zm-.796 0h-1.204v-.8h1.204zm-2 0h-1.204v-.8h1.204zm-2 0h-1.204v-.8h1.204zm-2 0h-1.204v-.8h1.204zm-2 0H8.398v-.8h1.204zm-2 0H6.398v-.8h1.204zm-2 0H4.398v-.8h1.204zm0 2.398V8.2H4.398v-.8zm14.796.801v-.8h1.204v.8zM21.602 5h-1.204v-.8h1.204zm-18-.8V5H2.398v-.8zM2.398 7.397h1.204V8.2H2.398zm0 0M14 12.602c0 1.101.898 2 2 2 1.102 0 2-.899 2-2 0-1.106-.898-2-2-2-1.102 0-2 .894-2 2zm3.2 0c0 .66-.54 1.199-1.2 1.199-.66 0-1.2-.54-1.2-1.2 0-.523.337-.96.802-1.128v1.129a.398.398 0 1 0 .796 0v-1.13c.465.169.801.606.801 1.13zm0 0M21.809 11.184a2.001 2.001 0 0 0-3.41 1.418c0 1.101.898 2 2 2a2.001 2.001 0 0 0 1.417-3.41s0-.005-.003-.005c0-.003-.004-.003-.004-.003zm-1.41 2.617a1.202 1.202 0 0 1 0-2.403c.187 0 .359.047.515.122l-.797.796a.4.4 0 0 0 .567.567l.796-.797c.075.156.122.328.122.516 0 .66-.54 1.199-1.204 1.199zm0 0M4 11.398H1.602v2.403H4zM3.2 13h-.802v-.8H3.2zm0 0M4.398 13.8h2.403v-2.402H4.398zm.801-1.6H6v.8h-.8zm0 0"/>
</svg>
